X:710
T:Foxhunter's Jig
R:slipjig
Z:Transcribed by Dave Marshall
M:9/8
L:1/8
K:D
|:~F3 FED ~G3 | ~F3 FED E2D | ~F3 FED GAB | AFD DEF E2D :|
|:~B3 BAG FGA | B2E E2F G2B | ABc dcB ABc | d2D DEF E2D :|
|:~f3 fed ~g3 | ~f3 fed e2d | ~f3 fed gab|afd def e2d :|
|:gfe dcB AGA | B2E E2F G2B | ABc dcB ABc|d2D DEF E2D :|
